public/img/step-3.svg

<svg width="64" height="64" viewBox="0 0 64 64" fill="none" xmlns="http://www.w3.org/2000/svg">
<path d="M10.668 16C10.9509 15.9999 11.2222 15.8875 11.4222 15.6875L15.6888 11.4208C16.0931 11.0023 16.0873 10.337 15.6758 9.92552C15.2644 9.51407 14.5991 9.50829 14.1806 9.91252L9.9139 14.1792C9.60893 14.4843 9.51772 14.943 9.68278 15.3415C9.84784 15.74 10.2367 15.9999 10.668 16Z" fill="#2474B7"/>
<path d="M9.91191 22.0875C10.3284 22.5039 11.0036 22.5039 11.4202 22.0875L22.0868 11.4208C22.4911 11.0023 22.4853 10.337 22.0738 9.92552C21.6624 9.51407 20.9971 9.50829 20.5786 9.91252L9.91191 20.5792C9.49551 20.9957 9.49551 21.6709 9.91191 22.0875Z" fill="#2474B7"/>
<path d="M55.108 43.6758C59.3281 40.0367 60.8401 34.1571 58.8991 28.9336C56.958 23.7102 51.9732 20.2448 46.4008 20.2448C40.8283 20.2448 35.8436 23.7102 33.9025 28.9336C31.9614 34.1571 33.4734 40.0367 37.6936 43.6758C32.385 45.6268 28.842 50.6644 28.8008 56.32V62.9334C28.8008 63.5225 29.2783 64 29.8674 64H62.9341C63.5232 64 64.0008 63.5225 64.0008 62.9334V56.32C63.9596 50.6644 60.4166 45.6268 55.108 43.6758ZM35.2008 33.6C35.2008 27.4144 40.2152 22.4 46.4008 22.4C52.5864 22.4 57.6008 27.4144 57.6008 33.6C57.6008 39.7856 52.5864 44.8 46.4008 44.8C40.2181 44.793 35.2078 39.7827 35.2008 33.6ZM61.8675 61.8667H55.4675V59.7334C55.4675 59.1443 54.9899 58.6667 54.4008 58.6667C53.8117 58.6667 53.3341 59.1443 53.3341 59.7334V61.8667H39.4675V59.7334C39.4675 59.1443 38.9899 58.6667 38.4008 58.6667C37.8117 58.6667 37.3341 59.1443 37.3341 59.7334V61.8667H30.9341V56.32C31.0043 51.0014 34.6972 46.4181 39.8792 45.2182C43.9262 47.5052 48.8754 47.5052 52.9224 45.2182C58.1044 46.4181 61.7973 51.0014 61.8675 56.32V61.8667Z" fill="#2474B7"/>
<path d="M60.8 0H43.7333C41.966 0 40.5333 1.43269 40.5333 3.2V5.33333H8.53333C6.76602 5.33333 5.33333 6.76602 5.33333 8.53333V35.9253L0.199467 43.1136C0.0818395 43.3001 0.0132279 43.5133 0 43.7333V46.9333C0 49.2897 1.91025 51.2 4.26667 51.2H26.8053C27.3944 51.2 27.872 50.7224 27.872 50.1333C27.872 49.5442 27.3944 49.0667 26.8053 49.0667H4.26667C3.08846 49.0667 2.13333 48.1115 2.13333 46.9333V44.8H17.6917L19.5125 46.6208C19.7125 46.8209 19.9838 46.9333 20.2667 46.9333H29.3333C29.9224 46.9333 30.4 46.4558 30.4 45.8667C30.4 45.2776 29.9224 44.8 29.3333 44.8H20.7083L19.3547 43.4453L19.9691 41.6H31.392C31.9811 41.6 32.4587 41.1224 32.4587 40.5333C32.4587 39.9442 31.9811 39.4667 31.392 39.4667H19.2C18.7411 39.467 18.3338 39.7609 18.1888 40.1963L17.3653 42.6667H3.1392L6.94827 37.3333H29.8667C30.4558 37.3333 30.9333 36.8558 30.9333 36.2667C30.9333 35.6776 30.4558 35.2 29.8667 35.2H24.5333V32.5333C24.5333 31.9442 24.0558 31.4667 23.4667 31.4667C22.8776 31.4667 22.4 31.9442 22.4 32.5333V35.2H20.2667V32.4587C20.2478 30.0892 21.7838 27.9873 24.0469 27.2853C27.4443 29.23 31.7656 28.2399 33.9774 25.01C36.1892 21.7802 35.5501 17.3933 32.5088 14.9287C29.4674 12.4641 25.0433 12.748 22.3419 15.5811C19.6405 18.4142 19.5674 22.8468 22.1739 25.7675C19.6803 27.0653 18.121 29.6476 18.1333 32.4587V35.2H7.46667V8.53333C7.46667 7.94423 7.94423 7.46667 8.53333 7.46667H40.5333V10.3467L37.5467 14.8203C37.1118 15.4754 37.0726 16.3166 37.4447 17.0093C37.8167 17.702 38.5396 18.134 39.3259 18.1333H60.8C62.5673 18.1333 64 16.7006 64 14.9333V3.2C64 1.43269 62.5673 0 60.8 0V0ZM27.7333 15.4667C30.6789 15.4667 33.0667 17.8545 33.0667 20.8C33.0667 23.7455 30.6789 26.1333 27.7333 26.1333C24.7878 26.1333 22.4 23.7455 22.4 20.8C22.4035 17.8559 24.7893 15.4702 27.7333 15.4667ZM61.8667 14.9333C61.8667 15.5224 61.3891 16 60.8 16H39.3259L42.4875 11.2587C42.604 11.0832 42.6663 10.8773 42.6667 10.6667V3.2C42.6667 2.6109 43.1442 2.13333 43.7333 2.13333H60.8C61.3891 2.13333 61.8667 2.6109 61.8667 3.2V14.9333Z" fill="#2474B7"/>
<path d="M57.6005 5.33334H46.9339C46.3448 5.33334 45.8672 5.81091 45.8672 6.40001C45.8672 6.98911 46.3448 7.46668 46.9339 7.46668H57.6005C58.1896 7.46668 58.6672 6.98911 58.6672 6.40001C58.6672 5.81091 58.1896 5.33334 57.6005 5.33334Z" fill="#2474B7"/>
<path d="M57.6005 10.6667H46.9339C46.3448 10.6667 45.8672 11.1442 45.8672 11.7334C45.8672 12.3225 46.3448 12.8 46.9339 12.8H57.6005C58.1896 12.8 58.6672 12.3225 58.6672 11.7334C58.6672 11.1442 58.1896 10.6667 57.6005 10.6667Z" fill="#2474B7"/>
</svg>

<svg width="64" height="64" fill="none" xmlns="http://www.w3.org/2000/svg"><path d="M10.668 16c.283 0 .554-.113.754-.313l4.267-4.266a1.067 1.067 0 00-1.508-1.508l-4.267 4.266A1.067 1.067 0 0010.668 16zm-.756 6.087a1.067 1.067 0 001.508 0l10.667-10.666a1.067 1.067 0 00-1.508-1.508L9.912 20.579a1.067 1.067 0 000 1.508zm45.196 21.589a13.334 13.334 0 10-17.414 0A13.576 13.576 0 0028.8 56.32v6.613c0 .59.477 1.067 1.066 1.067h33.067c.59 0 1.067-.477 1.067-1.067V56.32a13.576 13.576 0 00-8.893-12.644zM35.201 33.6c0-6.186 5.014-11.2 11.2-11.2 6.185 0 11.2 5.014 11.2 11.2 0 6.186-5.015 11.2-11.2 11.2-6.183-.007-11.193-5.017-11.2-11.2zm26.666 28.267h-6.4v-2.134a1.067 1.067 0 00-2.133 0v2.134H39.467v-2.134a1.067 1.067 0 00-2.133 0v2.134h-6.4V56.32a11.552 11.552 0 018.945-11.102 13.256 13.256 0 0013.043 0 11.552 11.552 0 018.946 11.102v5.547z" fill="#2474B7"/><path d="M60.8 0H43.733a3.2 3.2 0 00-3.2 3.2v2.133h-32a3.2 3.2 0 00-3.2 3.2v27.392L.2 43.114c-.117.186-.186.4-.199.62v3.2A4.267 4.267 0 004.267 51.2h22.538a1.067 1.067 0 000-2.133H4.267a2.133 2.133 0 01-2.134-2.134V44.8h15.559l1.82 1.82c.2.2.472.313.755.313h9.066a1.067 1.067 0 100-2.133h-8.625l-1.353-1.355.614-1.845h11.423a1.067 1.067 0 000-2.133H19.2c-.459 0-.866.294-1.011.73l-.824 2.47H3.14l3.81-5.334h22.918a1.067 1.067 0 100-2.133h-5.334v-2.667a1.067 1.067 0 10-2.133 0V35.2h-2.133v-2.741a5.372 5.372 0 013.78-5.174 7.512 7.512 0 10-1.873-1.518 7.506 7.506 0 00-4.04 6.692V35.2H7.466V8.533c0-.589.477-1.066 1.066-1.066h32v2.88l-2.986 4.473a2.133 2.133 0 001.779 3.313H60.8a3.2 3.2 0 003.2-3.2V3.2A3.2 3.2 0 0060.8 0zM27.733 15.467A5.333 5.333 0 1122.4 20.8a5.34 5.34 0 015.333-5.333zm34.134-.534c0 .59-.478 1.067-1.067 1.067H39.326l3.161-4.741a1.07 1.07 0 00.18-.592V3.2c0-.59.477-1.067 1.066-1.067H60.8c.59 0 1.067.478 1.067 1.067v11.733z" fill="#2474B7"/><path d="M57.6 5.333H46.934a1.067 1.067 0 000 2.134H57.6a1.067 1.067 0 000-2.134zm0 5.334H46.934a1.067 1.067 0 100 2.133H57.6a1.067 1.067 0 100-2.133z" fill="#2474B7"/></svg>
